src/assets/icons/del.svg

<svg width="32" height="32" viewBox="0 0 32 32" fill="none" xmlns="http://www.w3.org/2000/svg">
<path fill-rule="evenodd" clip-rule="evenodd" d="M14.6329 3H17.3669C17.9595 2.99999 18.4543 2.99998 18.8604 3.02769C19.2832 3.05654 19.6826 3.11873 20.0698 3.27911C20.9683 3.65129 21.6819 4.36512 22.054 5.26348C22.2144 5.6506 22.2766 6.04992 22.3055 6.47275C22.3165 6.6343 22.3232 6.80985 22.3272 7H26.6666C27.2189 7 27.6666 7.44772 27.6666 8C27.6666 8.55229 27.2189 9 26.6666 9H24.9999V23.7775C24.9999 24.488 25 25.0813 24.9604 25.5661C24.9191 26.0726 24.8297 26.5482 24.6006 26.998C24.2488 27.6885 23.687 28.249 22.9976 28.6003C22.548 28.8294 22.0727 28.9189 21.5662 28.9603C21.0805 29 20.486 29 19.7736 29H12.2267C11.5143 29 10.9196 29 10.4337 28.9603C9.9271 28.9189 9.45138 28.8295 9.00166 28.6003C8.31158 28.2487 7.75102 27.6878 7.39956 26.998C7.17043 26.5483 7.08095 26.0728 7.03957 25.5663C6.99989 25.0806 6.9999 24.4861 6.99992 23.7739L6.99992 9H5.33325C4.78097 9 4.33325 8.55229 4.33325 8C4.33325 7.44772 4.78097 7 5.33325 7H9.67263C9.67662 6.80988 9.68326 6.63436 9.69428 6.47284C9.72313 6.05004 9.78532 5.65066 9.94569 5.26348C10.3177 4.36526 11.0311 3.65135 11.9297 3.27911C12.317 3.11872 12.7164 3.05654 13.1393 3.02769C13.5455 2.99998 14.0403 2.99999 14.6329 3ZM11.6731 7H20.3268C20.3233 6.85435 20.3181 6.7257 20.3101 6.60907C20.2882 6.28813 20.2489 6.13178 20.2062 6.02884C20.0371 5.62038 19.7127 5.29599 19.3044 5.12687C19.2015 5.08426 19.0452 5.04495 18.7243 5.02305C18.3943 5.00054 17.9682 5 17.3333 5H14.6666C14.0317 5 13.6054 5.00054 13.2754 5.02306C12.9543 5.04496 12.7979 5.08427 12.6951 5.12687C12.2869 5.29593 11.9627 5.62024 11.7935 6.02884C11.7508 6.13171 11.7115 6.288 11.6896 6.60898C11.6817 6.72564 11.6765 6.85432 11.6731 7ZM8.99992 9V23.7333C8.99992 24.4966 9.0007 25.0089 9.03293 25.4034C9.06421 25.7863 9.12005 25.9693 9.18157 26.09C9.34144 26.4038 9.59619 26.6586 9.90964 26.8183C10.0303 26.8798 10.2135 26.9357 10.5965 26.967C10.9912 26.9992 11.5036 27 12.2668 27H19.7335C20.4967 27 21.0089 26.9992 21.4032 26.967C21.7859 26.9357 21.9688 26.8799 22.0896 26.8183C22.4038 26.6583 22.659 26.4031 22.8185 26.09C22.88 25.9694 22.9358 25.7865 22.967 25.4036C22.9992 25.009 22.9999 24.4967 22.9999 23.7333V9H8.99992ZM13.3333 12.3333C13.8855 12.3333 14.3333 12.781 14.3333 13.3333L14.3333 22.6667C14.3333 23.219 13.8855 23.6667 13.3333 23.6667C12.781 23.6667 12.3333 23.219 12.3333 22.6667L12.3333 13.3333C12.3333 12.781 12.781 12.3333 13.3333 12.3333ZM18.6666 12.3333C19.2189 12.3333 19.6666 12.781 19.6666 13.3333V22.6667C19.6666 23.219 19.2189 23.6667 18.6666 23.6667C18.1143 23.6667 17.6666 23.219 17.6666 22.6667V13.3333C17.6666 12.781 18.1143 12.3333 18.6666 12.3333Z" fill="white"/>
</svg>

<svg width="32" height="32" fill="none" xmlns="http://www.w3.org/2000/svg"><path fill-rule="evenodd" clip-rule="evenodd" d="M14.633 3h2.734c.592 0 1.087 0 1.493.028.423.029.823.09 1.21.251a3.67 3.67 0 0 1 1.984 1.984c.16.388.223.787.252 1.21q.015.242.021.527h4.34a1 1 0 1 1 0 2H25v14.778c0 .71 0 1.303-.04 1.788-.04.507-.13.982-.36 1.432a3.67 3.67 0 0 1-1.602 1.602c-.45.23-.925.319-1.432.36-.485.04-1.08.04-1.792.04h-7.547c-.713 0-1.307 0-1.793-.04-.507-.041-.983-.13-1.432-.36A3.67 3.67 0 0 1 7.4 26.998c-.23-.45-.32-.925-.36-1.432C7 25.081 7 24.486 7 23.774V9H5.333a1 1 0 1 1 0-2h4.34q.005-.285.021-.527c.03-.423.091-.822.252-1.21A3.67 3.67 0 0 1 11.93 3.28c.387-.16.786-.222 1.21-.251C13.545 3 14.04 3 14.632 3m-2.96 4h8.654a9 9 0 0 0-.017-.39c-.022-.322-.061-.478-.104-.581a1.67 1.67 0 0 0-.902-.902c-.102-.043-.259-.082-.58-.104-.33-.022-.756-.023-1.39-.023h-2.667c-.635 0-1.062 0-1.392.023-.32.022-.477.061-.58.104-.408.169-.732.493-.902.902-.042.103-.082.259-.103.58a9 9 0 0 0-.017.391M9 9v14.733c0 .764 0 1.276.033 1.67.031.383.087.566.149.687.16.314.414.569.728.728.12.062.303.118.687.149.394.032.907.033 1.67.033h7.467c.763 0 1.275 0 1.67-.033.382-.031.565-.087.686-.149.314-.16.569-.415.729-.728.061-.12.117-.303.148-.686.032-.395.033-.907.033-1.67V9zm4.333 3.333a1 1 0 0 1 1 1v9.334a1 1 0 0 1-2 0v-9.334a1 1 0 0 1 1-1m5.334 0a1 1 0 0 1 1 1v9.334a1 1 0 1 1-2 0v-9.334a1 1 0 0 1 1-1" fill="#fff"/></svg>
